images/16758582.svg

<?xml version="1.0" encoding="UTF-8"?>
<svg xmlns="http://www.w3.org/2000/svg" xmlns:xlink="http://www.w3.org/1999/xlink" width="300pt" height="300pt" viewBox="0 0 300 300" version="1.1">
<defs>
<g>
<symbol overflow="visible" id="glyph0-0">
<path style="stroke:none;" d="M 0.453125 1.59375 L 0.453125 -6.34375 L 4.953125 -6.34375 L 4.953125 1.59375 Z M 0.953125 1.09375 L 4.453125 1.09375 L 4.453125 -5.84375 L 0.953125 -5.84375 Z M 0.953125 1.09375 "/>
</symbol>
<symbol overflow="visible" id="glyph0-1">
<path style="stroke:none;" d="M 0.890625 -6.5625 L 2.078125 -6.5625 L 4.984375 -1.078125 L 4.984375 -6.5625 L 5.84375 -6.5625 L 5.84375 0 L 4.65625 0 L 1.75 -5.484375 L 1.75 0 L 0.890625 0 Z M 0.890625 -6.5625 "/>
</symbol>
<symbol overflow="visible" id="glyph0-2">
<path style="stroke:none;" d="M 3.546875 -5.953125 C 2.898438 -5.953125 2.382812 -5.710938 2 -5.234375 C 1.625 -4.753906 1.4375 -4.101562 1.4375 -3.28125 C 1.4375 -2.445312 1.625 -1.789062 2 -1.3125 C 2.382812 -0.832031 2.898438 -0.59375 3.546875 -0.59375 C 4.191406 -0.59375 4.703125 -0.832031 5.078125 -1.3125 C 5.453125 -1.789062 5.640625 -2.445312 5.640625 -3.28125 C 5.640625 -4.101562 5.453125 -4.753906 5.078125 -5.234375 C 4.703125 -5.710938 4.191406 -5.953125 3.546875 -5.953125 Z M 3.546875 -6.6875 C 4.460938 -6.6875 5.195312 -6.375 5.75 -5.75 C 6.300781 -5.132812 6.578125 -4.3125 6.578125 -3.28125 C 6.578125 -2.238281 6.300781 -1.410156 5.75 -0.796875 C 5.195312 -0.179688 4.460938 0.125 3.546875 0.125 C 2.617188 0.125 1.878906 -0.179688 1.328125 -0.796875 C 0.773438 -1.410156 0.5 -2.238281 0.5 -3.28125 C 0.5 -4.3125 0.773438 -5.132812 1.328125 -5.75 C 1.878906 -6.375 2.617188 -6.6875 3.546875 -6.6875 Z M 3.546875 -6.6875 "/>
</symbol>
<symbol overflow="visible" id="glyph0-3">
<path style="stroke:none;" d="M 0.890625 -6.5625 L 1.765625 -6.5625 L 1.765625 -3.875 L 5 -3.875 L 5 -6.5625 L 5.890625 -6.5625 L 5.890625 0 L 5 0 L 5 -3.125 L 1.765625 -3.125 L 1.765625 0 L 0.890625 0 Z M 0.890625 -6.5625 "/>
</symbol>
</g>
</defs>
<g id="surface35729">
<rect x="0" y="0" width="300" height="300" style="fill:rgb(100%,100%,100%);fill-opacity:1;stroke:none;"/>
<path style="fill:none;stroke-width:1.2;stroke-linecap:butt;stroke-linejoin:miter;stroke:rgb(0%,0%,0%);stroke-opacity:1;stroke-miterlimit:10;" d="M 172.050781 160.652344 L 160.992188 178.230469 "/>
<path style="fill:none;stroke-width:1.2;stroke-linecap:butt;stroke-linejoin:miter;stroke:rgb(0%,0%,0%);stroke-opacity:1;stroke-miterlimit:10;" d="M 162.355469 142.289062 L 172.050781 160.652344 "/>
<path style="fill:none;stroke-width:1;stroke-linecap:butt;stroke-linejoin:miter;stroke:rgb(0%,0%,0%);stroke-opacity:1;stroke-miterlimit:10;" d="M 140.242188 177.445312 L 140.242188 177.445312 M 143.175781 178.078125 L 143.214844 177.035156 M 146.105469 178.710938 L 146.1875 176.628906 M 149.039062 179.34375 L 149.15625 176.21875 M 151.972656 179.976562 L 152.128906 175.808594 M 154.90625 180.609375 L 155.101562 175.398438 M 157.835938 181.242188 L 158.074219 174.992188 M 160.769531 181.875 L 161.046875 174.582031 M 160.855469 181.894531 L 161.132812 174.570312 "/>
<path style="fill:none;stroke-width:1.2;stroke-linecap:butt;stroke-linejoin:miter;stroke:rgb(0%,0%,0%);stroke-opacity:1;stroke-miterlimit:10;" d="M 140.242188 177.445312 L 130.546875 159.082031 "/>
<path style="fill:none;stroke-width:1.2;stroke-linecap:butt;stroke-linejoin:miter;stroke:rgb(0%,0%,0%);stroke-opacity:1;stroke-miterlimit:10;" d="M 125.773438 192.339844 L 140.242188 177.445312 "/>
<path style="fill:none;stroke-width:1.2;stroke-linecap:butt;stroke-linejoin:miter;stroke:rgb(0%,0%,0%);stroke-opacity:1;stroke-miterlimit:10;" d="M 130.546875 159.082031 L 141.601562 141.503906 "/>
<path style=" stroke:none;fill-rule:nonzero;fill:rgb(0%,0%,0%);fill-opacity:1;" d="M 130.546875 159.082031 L 109.460938 159.015625 L 110.710938 166.238281 Z M 130.546875 159.082031 "/>
<path style=" stroke:none;fill-rule:nonzero;fill:rgb(0%,0%,0%);fill-opacity:1;" d="M 141.601562 141.503906 L 162.214844 145.953125 L 162.492188 138.628906 Z M 141.601562 141.503906 "/>
<path style="fill:none;stroke-width:1.2;stroke-linecap:butt;stroke-linejoin:miter;stroke:rgb(0%,0%,0%);stroke-opacity:1;stroke-miterlimit:10;" d="M 131.90625 123.140625 L 141.601562 141.503906 "/>
<path style=" stroke:none;fill-rule:nonzero;fill:rgb(0%,0%,0%);fill-opacity:1;" d="M 162.355469 142.289062 L 176.511719 126.664062 L 170.308594 122.761719 Z M 162.355469 142.289062 "/>
<path style="fill:none;stroke-width:1.2;stroke-linecap:butt;stroke-linejoin:miter;stroke:rgb(0%,0%,0%);stroke-opacity:1;stroke-miterlimit:10;" d="M 173.410156 124.710938 L 183.785156 125.105469 "/>
<path style="fill:none;stroke-width:1.2;stroke-linecap:butt;stroke-linejoin:miter;stroke:rgb(0%,0%,100%);stroke-opacity:1;stroke-miterlimit:10;" d="M 183.785156 125.105469 L 194.160156 125.496094 "/>
<path style="fill:none;stroke-width:1.2;stroke-linecap:butt;stroke-linejoin:miter;stroke:rgb(0%,0%,0%);stroke-opacity:1;stroke-miterlimit:10;" d="M 175.300781 129.671875 L 183.601562 129.988281 "/>
<path style="fill:none;stroke-width:1.2;stroke-linecap:butt;stroke-linejoin:miter;stroke:rgb(0%,0%,100%);stroke-opacity:1;stroke-miterlimit:10;" d="M 183.601562 129.988281 L 191.902344 130.300781 "/>
<path style="fill:none;stroke-width:1.2;stroke-linecap:butt;stroke-linejoin:miter;stroke:rgb(0%,0%,0%);stroke-opacity:1;stroke-miterlimit:10;" d="M 173.410156 124.710938 L 163.714844 106.347656 "/>
<path style="fill:none;stroke-width:1.2;stroke-linecap:butt;stroke-linejoin:miter;stroke:rgb(0%,0%,100%);stroke-opacity:1;stroke-miterlimit:10;" d="M 194.160156 125.496094 L 199.007812 134.679688 "/>
<path style="fill:none;stroke-width:1.2;stroke-linecap:butt;stroke-linejoin:miter;stroke:rgb(100%,0%,0%);stroke-opacity:1;stroke-miterlimit:10;" d="M 199.007812 134.679688 L 203.855469 143.859375 "/>
<path style=" stroke:none;fill-rule:nonzero;fill:rgb(100%,100%,100%);fill-opacity:1;" d="M 191.160156 119.996094 L 198.160156 119.996094 L 198.160156 130.996094 L 191.160156 130.996094 Z M 191.160156 119.996094 "/>
<g style="fill:rgb(0%,0%,100%);fill-opacity:1;">
  <use xlink:href="#glyph0-1" x="191.160156" y="128.65918"/>
</g>
<path style="fill:none;stroke-width:1.2;stroke-linecap:butt;stroke-linejoin:miter;stroke:rgb(100%,0%,0%);stroke-opacity:1;stroke-miterlimit:10;" d="M 203.855469 143.859375 L 214.234375 144.253906 "/>
<path style="fill:none;stroke-width:1.2;stroke-linecap:butt;stroke-linejoin:miter;stroke:rgb(0%,0%,0%);stroke-opacity:1;stroke-miterlimit:10;" d="M 214.234375 144.253906 L 224.609375 144.648438 "/>
<path style=" stroke:none;fill-rule:nonzero;fill:rgb(100%,100%,100%);fill-opacity:1;" d="M 199.855469 138.359375 L 207.855469 138.359375 L 207.855469 149.359375 L 199.855469 149.359375 Z M 199.855469 138.359375 "/>
<g style="fill:rgb(100%,0%,0%);fill-opacity:1;">
  <use xlink:href="#glyph0-2" x="199.855469" y="147.022461"/>
</g>
<path style="fill:none;stroke-width:1.2;stroke-linecap:butt;stroke-linejoin:miter;stroke:rgb(0%,0%,0%);stroke-opacity:1;stroke-miterlimit:10;" d="M 224.609375 144.648438 L 234.304688 163.011719 "/>
<path style="fill:none;stroke-width:1.2;stroke-linecap:butt;stroke-linejoin:miter;stroke:rgb(0%,0%,0%);stroke-opacity:1;stroke-miterlimit:10;" d="M 234.304688 163.011719 L 223.246094 180.589844 "/>
<path style="fill:none;stroke-width:1.2;stroke-linecap:butt;stroke-linejoin:miter;stroke:rgb(0%,0%,0%);stroke-opacity:1;stroke-miterlimit:10;" d="M 237.332031 167.371094 L 228.488281 181.433594 "/>
<path style="fill:none;stroke-width:1.2;stroke-linecap:butt;stroke-linejoin:miter;stroke:rgb(0%,0%,0%);stroke-opacity:1;stroke-miterlimit:10;" d="M 255.054688 163.796875 L 234.304688 163.011719 "/>
<path style="fill:none;stroke-width:1.2;stroke-linecap:butt;stroke-linejoin:miter;stroke:rgb(0%,0%,0%);stroke-opacity:1;stroke-miterlimit:10;" d="M 223.246094 180.589844 L 232.941406 198.953125 "/>
<path style="fill:none;stroke-width:1.2;stroke-linecap:butt;stroke-linejoin:miter;stroke:rgb(0%,0%,0%);stroke-opacity:1;stroke-miterlimit:10;" d="M 232.941406 198.953125 L 253.695312 199.738281 "/>
<path style="fill:none;stroke-width:1.2;stroke-linecap:butt;stroke-linejoin:miter;stroke:rgb(0%,0%,0%);stroke-opacity:1;stroke-miterlimit:10;" d="M 235.203125 194.148438 L 251.804688 194.777344 "/>
<path style="fill:none;stroke-width:1.2;stroke-linecap:butt;stroke-linejoin:miter;stroke:rgb(0%,0%,0%);stroke-opacity:1;stroke-miterlimit:10;" d="M 253.695312 199.738281 L 264.75 182.160156 "/>
<path style="fill:none;stroke-width:1.2;stroke-linecap:butt;stroke-linejoin:miter;stroke:rgb(0%,0%,0%);stroke-opacity:1;stroke-miterlimit:10;" d="M 264.75 182.160156 L 255.054688 163.796875 "/>
<path style="fill:none;stroke-width:1.2;stroke-linecap:butt;stroke-linejoin:miter;stroke:rgb(0%,0%,0%);stroke-opacity:1;stroke-miterlimit:10;" d="M 259.460938 182.605469 L 251.703125 167.914062 "/>
<path style="fill:none;stroke-width:1.2;stroke-linecap:butt;stroke-linejoin:miter;stroke:rgb(0%,0%,0%);stroke-opacity:1;stroke-miterlimit:10;" d="M 163.714844 106.347656 L 142.964844 105.5625 "/>
<path style="fill:none;stroke-width:1.2;stroke-linecap:butt;stroke-linejoin:miter;stroke:rgb(0%,0%,0%);stroke-opacity:1;stroke-miterlimit:10;" d="M 142.964844 105.5625 L 131.90625 123.140625 "/>
<path style="fill:none;stroke-width:1;stroke-linecap:butt;stroke-linejoin:miter;stroke:rgb(0%,0%,0%);stroke-opacity:1;stroke-miterlimit:10;" d="M 142.964844 105.5625 L 142.964844 105.5625 M 142.046875 102.707031 L 141.125 103.191406 M 141.128906 99.847656 L 139.285156 100.824219 M 140.210938 96.992188 L 137.441406 98.453125 M 139.292969 94.136719 L 135.601562 96.085938 M 138.371094 91.28125 L 133.761719 93.714844 M 137.453125 88.425781 L 131.921875 91.347656 M 136.535156 85.570312 L 130.082031 88.976562 M 136.507812 85.484375 L 130.027344 88.90625 "/>
<path style="fill:none;stroke-width:1;stroke-linecap:butt;stroke-linejoin:miter;stroke:rgb(0%,0%,0%);stroke-opacity:1;stroke-miterlimit:10;" d="M 131.90625 123.140625 L 131.90625 123.140625 M 128.976562 122.507812 L 128.9375 123.546875 M 126.042969 121.875 L 125.964844 123.957031 M 123.109375 121.242188 L 122.992188 124.367188 M 120.179688 120.609375 L 120.019531 124.777344 M 117.246094 119.976562 L 117.046875 125.183594 M 114.3125 119.34375 L 114.074219 125.59375 M 111.378906 118.710938 L 111.105469 126.003906 M 111.296875 118.691406 L 111.019531 126.015625 "/>
<path style=" stroke:none;fill-rule:nonzero;fill:rgb(100%,100%,100%);fill-opacity:1;" d="M 96.15625 116.855469 L 111.15625 116.855469 L 111.15625 127.855469 L 96.15625 127.855469 Z M 96.15625 116.855469 "/>
<g style="fill:rgb(100%,0%,0%);fill-opacity:1;">
  <use xlink:href="#glyph0-3" x="96.15625" y="125.518555"/>
  <use xlink:href="#glyph0-2" x="103.170898" y="125.518555"/>
</g>
<path style=" stroke:none;fill-rule:nonzero;fill:rgb(100%,100%,100%);fill-opacity:1;" d="M 118.269531 81.695312 L 133.269531 81.695312 L 133.269531 92.695312 L 118.269531 92.695312 Z M 118.269531 81.695312 "/>
<g style="fill:rgb(100%,0%,0%);fill-opacity:1;">
  <use xlink:href="#glyph0-3" x="118.269531" y="90.358398"/>
  <use xlink:href="#glyph0-2" x="125.28418" y="90.358398"/>
</g>
<path style="fill:none;stroke-width:1.2;stroke-linecap:butt;stroke-linejoin:miter;stroke:rgb(0%,0%,0%);stroke-opacity:1;stroke-miterlimit:10;" d="M 111.789062 160.875 L 104.339844 153.640625 "/>
<path style="fill:none;stroke-width:1.2;stroke-linecap:butt;stroke-linejoin:miter;stroke:rgb(100%,0%,0%);stroke-opacity:1;stroke-miterlimit:10;" d="M 104.339844 153.640625 L 96.890625 146.40625 "/>
<path style="fill:none;stroke-width:1.2;stroke-linecap:butt;stroke-linejoin:miter;stroke:rgb(0%,0%,0%);stroke-opacity:1;stroke-miterlimit:10;" d="M 108.382812 164.378906 L 100.933594 157.144531 "/>
<path style="fill:none;stroke-width:1.2;stroke-linecap:butt;stroke-linejoin:miter;stroke:rgb(100%,0%,0%);stroke-opacity:1;stroke-miterlimit:10;" d="M 100.933594 157.144531 L 93.488281 149.910156 "/>
<path style="fill:none;stroke-width:1.2;stroke-linecap:butt;stroke-linejoin:miter;stroke:rgb(0%,0%,0%);stroke-opacity:1;stroke-miterlimit:10;" d="M 110.085938 162.628906 L 108.609375 172.90625 "/>
<path style="fill:none;stroke-width:1.2;stroke-linecap:butt;stroke-linejoin:miter;stroke:rgb(0%,0%,100%);stroke-opacity:1;stroke-miterlimit:10;" d="M 108.609375 172.90625 L 107.136719 183.183594 "/>
<path style=" stroke:none;fill-rule:nonzero;fill:rgb(100%,100%,100%);fill-opacity:1;" d="M 87.191406 142.660156 L 95.191406 142.660156 L 95.191406 153.660156 L 87.191406 153.660156 Z M 87.191406 142.660156 "/>
<g style="fill:rgb(100%,0%,0%);fill-opacity:1;">
  <use xlink:href="#glyph0-2" x="87.191406" y="151.323242"/>
</g>
<path style="fill:none;stroke-width:1.2;stroke-linecap:butt;stroke-linejoin:miter;stroke:rgb(0%,0%,100%);stroke-opacity:1;stroke-miterlimit:10;" d="M 107.136719 183.183594 L 116.453125 187.761719 "/>
<path style="fill:none;stroke-width:1.2;stroke-linecap:butt;stroke-linejoin:miter;stroke:rgb(0%,0%,0%);stroke-opacity:1;stroke-miterlimit:10;" d="M 116.453125 187.761719 L 125.773438 192.339844 "/>
<path style="fill:none;stroke-width:1.2;stroke-linecap:butt;stroke-linejoin:miter;stroke:rgb(0%,0%,100%);stroke-opacity:1;stroke-miterlimit:10;" d="M 107.136719 183.183594 L 97.953125 188.03125 "/>
<path style="fill:none;stroke-width:1.2;stroke-linecap:butt;stroke-linejoin:miter;stroke:rgb(0%,0%,0%);stroke-opacity:1;stroke-miterlimit:10;" d="M 97.953125 188.03125 L 88.769531 192.878906 "/>
<path style=" stroke:none;fill-rule:nonzero;fill:rgb(100%,100%,100%);fill-opacity:1;" d="M 104.136719 177.683594 L 111.136719 177.683594 L 111.136719 188.683594 L 104.136719 188.683594 Z M 104.136719 177.683594 "/>
<g style="fill:rgb(0%,0%,100%);fill-opacity:1;">
  <use xlink:href="#glyph0-1" x="104.136719" y="186.34668"/>
</g>
<path style="fill:none;stroke-width:1.2;stroke-linecap:butt;stroke-linejoin:miter;stroke:rgb(0%,0%,0%);stroke-opacity:1;stroke-miterlimit:10;" d="M 123.367188 192.757812 L 125.136719 202.988281 "/>
<path style="fill:none;stroke-width:1.2;stroke-linecap:butt;stroke-linejoin:miter;stroke:rgb(100%,0%,0%);stroke-opacity:1;stroke-miterlimit:10;" d="M 125.136719 202.988281 L 126.910156 213.21875 "/>
<path style="fill:none;stroke-width:1.2;stroke-linecap:butt;stroke-linejoin:miter;stroke:rgb(0%,0%,0%);stroke-opacity:1;stroke-miterlimit:10;" d="M 128.179688 191.925781 L 129.953125 202.15625 "/>
<path style="fill:none;stroke-width:1.2;stroke-linecap:butt;stroke-linejoin:miter;stroke:rgb(100%,0%,0%);stroke-opacity:1;stroke-miterlimit:10;" d="M 129.953125 202.15625 L 131.726562 212.386719 "/>
<path style=" stroke:none;fill-rule:nonzero;fill:rgb(100%,100%,100%);fill-opacity:1;" d="M 125.316406 207.304688 L 133.316406 207.304688 L 133.316406 218.304688 L 125.316406 218.304688 Z M 125.316406 207.304688 "/>
<g style="fill:rgb(100%,0%,0%);fill-opacity:1;">
  <use xlink:href="#glyph0-2" x="125.316406" y="215.967773"/>
</g>
<path style="fill:none;stroke-width:1.2;stroke-linecap:butt;stroke-linejoin:miter;stroke:rgb(0%,0%,0%);stroke-opacity:1;stroke-miterlimit:10;" d="M 88.769531 192.878906 L 71.191406 181.820312 "/>
<path style="fill:none;stroke-width:1.2;stroke-linecap:butt;stroke-linejoin:miter;stroke:rgb(0%,0%,0%);stroke-opacity:1;stroke-miterlimit:10;" d="M 71.191406 181.820312 L 71.976562 161.070312 "/>
<path style="fill:none;stroke-width:1.2;stroke-linecap:butt;stroke-linejoin:miter;stroke:rgb(0%,0%,0%);stroke-opacity:1;stroke-miterlimit:10;" d="M 66.386719 179.5625 L 67.015625 162.960938 "/>
<path style="fill:none;stroke-width:1.2;stroke-linecap:butt;stroke-linejoin:miter;stroke:rgb(0%,0%,0%);stroke-opacity:1;stroke-miterlimit:10;" d="M 52.828125 191.515625 L 71.191406 181.820312 "/>
<path style="fill:none;stroke-width:1.2;stroke-linecap:butt;stroke-linejoin:miter;stroke:rgb(0%,0%,0%);stroke-opacity:1;stroke-miterlimit:10;" d="M 71.976562 161.070312 L 54.398438 150.015625 "/>
<path style="fill:none;stroke-width:1.2;stroke-linecap:butt;stroke-linejoin:miter;stroke:rgb(0%,0%,0%);stroke-opacity:1;stroke-miterlimit:10;" d="M 54.398438 150.015625 L 36.035156 159.710938 "/>
<path style="fill:none;stroke-width:1.2;stroke-linecap:butt;stroke-linejoin:miter;stroke:rgb(0%,0%,0%);stroke-opacity:1;stroke-miterlimit:10;" d="M 54.84375 155.304688 L 40.152344 163.0625 "/>
<path style="fill:none;stroke-width:1.2;stroke-linecap:butt;stroke-linejoin:miter;stroke:rgb(0%,0%,0%);stroke-opacity:1;stroke-miterlimit:10;" d="M 36.035156 159.710938 L 35.25 180.460938 "/>
<path style="fill:none;stroke-width:1.2;stroke-linecap:butt;stroke-linejoin:miter;stroke:rgb(0%,0%,0%);stroke-opacity:1;stroke-miterlimit:10;" d="M 35.25 180.460938 L 52.828125 191.515625 "/>
<path style="fill:none;stroke-width:1.2;stroke-linecap:butt;stroke-linejoin:miter;stroke:rgb(0%,0%,0%);stroke-opacity:1;stroke-miterlimit:10;" d="M 39.609375 177.429688 L 53.671875 186.277344 "/>
</g>
</svg>

<svg xmlns="http://www.w3.org/2000/svg" xmlns:xlink="http://www.w3.org/1999/xlink" width="300pt" height="300pt" viewBox="0 0 300 300"><defs><symbol overflow="visible"><path d="M.453 1.594v-7.938h4.5v7.938zm.5-.5h3.5v-6.938h-3.5zm0 0"/></symbol><symbol overflow="visible" id="a"><path d="M.89-6.563H2.08l2.906 5.485v-5.484h.86V0H4.656L1.75-5.484V0H.89zm0 0"/></symbol><symbol overflow="visible" id="b"><path d="M3.547-5.953c-.65 0-1.164.242-1.547.72-.375.48-.563 1.13-.563 1.952 0 .835.188 1.49.563 1.967.383.48.898.72 1.547.72.644 0 1.156-.24 1.53-.72.376-.476.564-1.132.564-1.968 0-.822-.187-1.474-.562-1.954-.375-.477-.887-.72-1.53-.72zm0-.734c.914 0 1.648.312 2.203.937.55.617.828 1.438.828 2.47 0 1.042-.277 1.87-.828 2.483-.555.617-1.29.922-2.203.922-.93 0-1.668-.305-2.22-.922C.774-1.41.5-2.237.5-3.28c0-1.033.273-1.853.828-2.47.55-.625 1.29-.938 2.22-.938zm0 0"/></symbol><symbol overflow="visible" id="c"><path d="M.89-6.563h.876v2.688H5v-2.688h.89V0H5v-3.125H1.766V0H.89zm0 0"/></symbol></defs><g><path fill="#fff" d="M0 0h300v300H0z"/><path d="M172.05 160.652l-11.058 17.578M162.355 142.29l9.696 18.362" stroke-width="1.2" stroke="#000" stroke-miterlimit="10" fill="none"/><path d="M140.242 177.445m2.934.633l.04-1.043m2.89 1.676l.082-2.08m2.85 2.714l.118-3.125m2.817 3.757l.156-4.168m2.776 4.8l.196-5.212m2.734 5.844l.238-6.25m2.696 6.883l.277-7.293m-.192 7.313l.278-7.325" stroke="#000" stroke-miterlimit="10" fill="none"/><path d="M140.242 177.445l-9.695-18.363M125.773 192.34l14.47-14.895M130.547 159.082l11.055-17.578" stroke-width="1.2" stroke="#000" stroke-miterlimit="10" fill="none"/><path d="M130.547 159.082l-21.086-.066 1.25 7.222zm0 0M141.602 141.504l20.613 4.45.277-7.325zm0 0"/><path d="M131.906 123.14l9.696 18.364" stroke-width="1.2" stroke="#000" stroke-miterlimit="10" fill="none"/><path d="M162.355 142.29l14.157-15.626-6.203-3.902zm0 0"/><path d="M173.41 124.71l10.375.395" stroke-width="1.2" stroke="#000" stroke-miterlimit="10" fill="none"/><path d="M183.785 125.105l10.375.39" stroke-width="1.2" stroke="#00f" stroke-miterlimit="10" fill="none"/><path d="M175.3 129.672l8.302.316" stroke-width="1.2" stroke="#000" stroke-miterlimit="10" fill="none"/><path d="M183.602 129.988l8.3.313" stroke-width="1.2" stroke="#00f" stroke-miterlimit="10" fill="none"/><path d="M173.41 124.71l-9.695-18.362" stroke-width="1.2" stroke="#000" stroke-miterlimit="10" fill="none"/><path d="M194.16 125.496l4.848 9.184" stroke-width="1.2" stroke="#00f" stroke-miterlimit="10" fill="none"/><path d="M199.008 134.68l4.847 9.18" stroke-width="1.2" stroke="#f00" stroke-miterlimit="10" fill="none"/><path d="M191.16 119.996h7v11h-7zm0 0" fill="#fff"/><use xlink:href="#a" x="191.16" y="128.659" fill="#00f"/><path d="M203.855 143.86l10.38.394" stroke-width="1.2" stroke="#f00" stroke-miterlimit="10" fill="none"/><path d="M214.234 144.254l10.375.394" stroke-width="1.2" stroke="#000" stroke-miterlimit="10" fill="none"/><path d="M199.855 138.36h8v11h-8zm0 0" fill="#fff"/><use xlink:href="#b" x="199.855" y="147.022" fill="#f00"/><path d="M224.61 144.648l9.695 18.364M234.305 163.012l-11.06 17.578M237.332 167.37l-8.844 14.064M255.055 163.797l-20.75-.785M223.246 180.59l9.695 18.363M232.94 198.953l20.755.785M235.203 194.148l16.602.63M253.695 199.738l11.055-17.578M264.75 182.16l-9.695-18.363M259.46 182.605l-7.757-14.69M163.715 106.348l-20.75-.785M142.965 105.563l-11.06 17.578" stroke-width="1.2" stroke="#000" stroke-miterlimit="10" fill="none"/><path d="M142.965 105.563m-.918-2.856l-.922.484m.004-3.342l-1.845.976m.926-3.832l-2.77 1.46m1.853-4.315l-3.69 1.95m2.768-4.806l-4.608 2.435m3.69-5.29l-5.53 2.923m4.613-5.778l-6.453 3.407m6.426-3.493l-6.48 3.422M131.906 123.14m-2.93-.632l-.038 1.04m-2.895-1.673l-.078 2.082m-2.856-2.715l-.118 3.125m-2.812-3.758l-.16 4.167m-2.774-4.8l-.2 5.207m-2.734-5.84l-.238 6.25m-2.695-6.883l-.275 7.294m.192-7.313l-.277 7.326" stroke="#000" stroke-miterlimit="10" fill="none"/><path d="M96.156 116.855h15v11h-15zm0 0" fill="#fff"/><g fill="#f00"><use xlink:href="#c" x="96.156" y="125.519"/><use xlink:href="#b" x="103.171" y="125.519"/></g><path d="M118.27 81.695h15v11h-15zm0 0" fill="#fff"/><g fill="#f00"><use xlink:href="#c" x="118.27" y="90.358"/><use xlink:href="#b" x="125.284" y="90.358"/></g><path d="M111.79 160.875l-7.45-7.234" stroke-width="1.2" stroke="#000" stroke-miterlimit="10" fill="none"/><path d="M104.34 153.64l-7.45-7.234" stroke-width="1.2" stroke="#f00" stroke-miterlimit="10" fill="none"/><path d="M108.383 164.38l-7.45-7.235" stroke-width="1.2" stroke="#000" stroke-miterlimit="10" fill="none"/><path d="M100.934 157.145l-7.446-7.235" stroke-width="1.2" stroke="#f00" stroke-miterlimit="10" fill="none"/><path d="M110.086 162.63l-1.477 10.276" stroke-width="1.2" stroke="#000" stroke-miterlimit="10" fill="none"/><path d="M108.61 172.906l-1.473 10.278" stroke-width="1.2" stroke="#00f" stroke-miterlimit="10" fill="none"/><path d="M87.19 142.66h8v11h-8zm0 0" fill="#fff"/><use xlink:href="#b" x="87.191" y="151.323" fill="#f00"/><path d="M107.137 183.184l9.316 4.578" stroke-width="1.2" stroke="#00f" stroke-miterlimit="10" fill="none"/><path d="M116.453 187.762l9.32 4.578" stroke-width="1.2" stroke="#000" stroke-miterlimit="10" fill="none"/><path d="M107.137 183.184l-9.184 4.847" stroke-width="1.2" stroke="#00f" stroke-miterlimit="10" fill="none"/><path d="M97.953 188.03l-9.183 4.85" stroke-width="1.2" stroke="#000" stroke-miterlimit="10" fill="none"/><path d="M104.137 177.684h7v11h-7zm0 0" fill="#fff"/><use xlink:href="#a" x="104.137" y="186.347" fill="#00f"/><path d="M123.367 192.758l1.77 10.23" stroke-width="1.2" stroke="#000" stroke-miterlimit="10" fill="none"/><path d="M125.137 202.988l1.773 10.23" stroke-width="1.2" stroke="#f00" stroke-miterlimit="10" fill="none"/><path d="M128.18 191.926l1.773 10.23" stroke-width="1.2" stroke="#000" stroke-miterlimit="10" fill="none"/><path d="M129.953 202.156l1.774 10.23" stroke-width="1.2" stroke="#f00" stroke-miterlimit="10" fill="none"/><path d="M125.316 207.305h8v11h-8zm0 0" fill="#fff"/><use xlink:href="#b" x="125.316" y="215.968" fill="#f00"/><path d="M88.77 192.88l-17.58-11.06M71.19 181.82l.787-20.75M66.387 179.563l.63-16.602M52.828 191.516l18.363-9.696M71.977 161.07l-17.58-11.054M54.398 150.016l-18.363 9.695M54.844 155.305l-14.692 7.757M36.035 159.71l-.785 20.75M35.25 180.46l17.578 11.056M39.61 177.43l14.062 8.847" stroke-width="1.2" stroke="#000" stroke-miterlimit="10" fill="none"/></g></svg>
